X:1
T:Title
%%score { ( 1 3 ) | ( 2 4 ) }
L:1/8
M:6/8
K:Bb
V:1 treble nm="Grand Piano"
V:3 treble 
V:2 bass 
V:4 bass 
V:1
 z3 z2[Q:1/4=75] [DF] | [DB]>[DA][DB] [B,G]A[DB] | [EA][EB][EG] [DF]2 D | E>FG CDE | FAB c2 F | %5
 [DB]>[DA][DB] [DG][DA][DB] | [EA][EB][EG] [DF]2 D | CFA [=Ec][EG][EA] | %8
[M:5/8] [D=EB][CEA][B,EG] F2 |[M:1/8] F |[M:3/4] c>c cc dc | [DB][FA] [EG] [DF]2 F | c>c cc dc | %13
 BB c d3 | e>e ed dd | cc c B3 | B>A GF [FB][Fd] |[M:5/8] [=Ec][EG]A [DB]2 |] %18
V:2
 z3 z2 [D,B,] | [B,,F,]>[B,,F,][B,,F,] z A,[B,,G,] | [B,,F,][B,,G,][B,,A,] [B,,B,]2 [B,,F,B,] | %3
 [F,C]>[F,D][F,E] A,B,[F,C] | [F,C][F,C][F,D] [F,A,E]2 [F,A,E] | %5
 [B,,F,]>[B,,F,][B,,F,] [B,,B,][B,,A,][B,,G,] | [B,,F,][B,,G,][B,,A,] [B,,B,]2 [B,,F,B,] | %7
 [C,F,A,][C,A,C][C,F,C] [C,G,][C,C][C,C] |[M:5/8] C,C,C, [F,A,]2 |[M:1/8] [F,E] | %10
[M:3/4] [F,A,E]>[F,A,E] [F,A,E][F,A,E] [F,A,F][F,A,E] | [B,,B,][B,,B,] [B,,B,] [B,,B,]2 [D,B,] | %12
 [F,A,E]>[F,A,E] [F,A,E][F,A,E] [F,A,F][F,A,E] | [G,B,D][G,B,D] [F,A,F] [B,F]3 | %14
 [A,CF]>[A,CF] [A,CF][B,F] [B,F][B,F] | [F,A,F][F,A,F] [F,A,E] [G,B,D]3 | %16
 [=E,B,_D]>[E,B,D] [E,B,D][F,B,=D] [D,B,][B,,B,] |[M:5/8] [C,B,][C,C][F,E] [B,,F,]2 |] %18
V:3
 x6 | z3 .D3 | x6 | x6 | x6 | x6 | x6 | x6 |[M:5/8] x5 |[M:1/8] x |[M:3/4] x6 | x6 | x6 | x6 | x6 | %15
 x6 | x6 |[M:5/8] x5 |] %18
V:4
 x6 | z3 .B,,3 | x6 | z3 .F,3 | x6 | x6 | x6 | x6 |[M:5/8] x5 |[M:1/8] x |[M:3/4] x6 | x6 | x6 | %13
 x6 | x6 | x6 | x6 |[M:5/8] x5 |] %18

